; generated by PrusaSlicer 2.3.3 on 2021-09-20 at 11:26:52 UTC

; 

; external perimeters extrusion width = 0.60mm
; perimeters extrusion width = 0.50mm
; infill extrusion width = 0.50mm
; solid infill extrusion width = 0.50mm
; top infill extrusion width = 0.45mm
; first layer extrusion width = 0.42mm

M73 P0 R213
M73 Q0 S214
M201 X1000 Y1000 Z200 E5000 ; sets maximum accelerations, mm/sec^2
M203 X200 Y200 Z12 E120 ; sets maximum feedrates, mm/sec
M204 P1250 R1250 T1250 ; sets acceleration (P, T) and retract acceleration (R), mm/sec^2
M205 X8.00 Y8.00 Z0.40 E4.50 ; sets the jerk limits, mm/sec
M205 S0 T0 ; sets the minimum extruding and travel feed rate, mm/sec
M107
;TYPE:Custom
M862.3 P "MK3SMMU2S" ; printer model check
M862.1 P0.4 ; nozzle diameter check
M115 U3.10.0 ; tell printer latest fw version
G90 ; use absolute coordinates
M83 ; extruder relative mode
M104 S215 ; set extruder temp
M140 S60 ; set bed temp
Tx
M190 S60 ; wait for bed temp
M109 S215 ; wait for extruder temp
G28 W ; home all without mesh bed level
G80 ; mesh bed leveling

;go outside print area
G1 Y-3.0 F1000.0
G1 Z0.4 F1000.0
; select extruder
Tc
; purge line
G1 X55.0 F2000.0
G1 Z0.3 F1000.0
G92 E0.0
G1 X240.0 E25.0 F2200.0
M73 P0 R212
G1 Y-2.0 F1000.0
G1 X55.0 E25 F1400.0
G1 Z0.20 F1000.0
G1 X5.0 E4.0 F1000.0

M221 S95
G92 E0.0

; Don't change E values below. Excessive value can damage the printer.

M907 E538 ; set extruder motor current
G21 ; set units to millimeters
G90 ; use absolute coordinates
M83 ; use relative distances for extrusion
M900 K0.05 ; Filament gcode LA 1.5
M900 K30 ; Filament gcode LA 1.0
;LAYER_CHANGE
;Z:0.2
;HEIGHT:0.2
;BEFORE_LAYER_CHANGE
G92 E0.0
;0.2


G1 E-0.80000 F2100.000
G1 Z0.400 F10800.000
;AFTER_LAYER_CHANGE
;0.2
G1 X14.095 Y42.221
G1 Z0.200
G1 E0.80000 F2100.000
M204 S1000
;TYPE:Skirt
;WIDTH:0.42
G1 F1200.000
G1 X14.580 Y41.088 E0.03866
G1 X15.021 Y40.403 E0.02553
G1 X15.535 Y39.810 E0.02462
G1 X16.615 Y38.950 E0.04329
G1 X17.288 Y38.591 E0.02393
G1 X18.090 Y38.297 E0.02677
G1 X19.014 Y38.113 E0.02953
G1 X19.693 Y38.071 E0.02133
G1 X230.299 Y38.071 E6.60341
M73 Q0 S213
G1 X231.233 Y38.148 E0.02937
G1 X232.238 Y38.402 E0.03250
G1 X233.167 Y38.820 E0.03195
G1 X234.104 Y39.474 E0.03585
G1 X234.868 Y40.260 E0.03436
G1 X235.427 Y41.093 E0.03146
G1 X235.858 Y42.076 E0.03366
G1 X236.042 Y42.802 E0.02348
G1 X236.148 Y43.544 E0.02348
G1 X237.644 Y67.498 E0.75255
G1 X238.864 Y91.471 E0.75260
G1 X239.809 Y115.472 E0.75312
G1 X240.444 Y138.195 E0.71275
G1 X240.869 Y163.846 E0.80437
G1 X240.777 Y164.828 E0.03093
G1 X240.560 Y165.838 E0.03238
G1 X240.224 Y166.805 E0.03210
G1 X239.742 Y167.775 E0.03395
G1 X239.157 Y168.650 E0.03301
G1 X238.459 Y169.452 E0.03334
G1 X237.665 Y170.159 E0.03334
G1 X236.775 Y170.765 E0.03375
G1 X235.825 Y171.247 E0.03340
G1 X234.817 Y171.605 E0.03354
G1 X233.681 Y171.846 E0.03642
G1 X232.530 Y171.929 E0.03618
G1 X17.314 Y171.927 E6.74795
G1 X16.170 Y171.823 E0.03601
G1 X15.162 Y171.600 E0.03238
G1 X14.176 Y171.248 E0.03282
G1 X13.231 Y170.768 E0.03324
G1 X12.339 Y170.161 E0.03383
G1 X11.543 Y169.455 E0.03335
G1 X10.845 Y168.653 E0.03335
G1 X10.257 Y167.774 E0.03316
G1 X9.775 Y166.802 E0.03400
G1 X9.427 Y165.790 E0.03354
G1 X9.197 Y164.644 E0.03666
G1 X9.127 Y163.481 E0.03654
G1 X9.556 Y138.195 E0.79293
G1 X10.191 Y115.471 E0.71278
G1 X11.136 Y91.471 E0.75308
G1 X12.356 Y67.499 E0.75260
G1 X13.860 Y43.451 E0.75547
G1 X14.084 Y42.280 E0.03739
; printing object test-mount_v4.stl id:0 copy 0
;WIPE_START
G1 F8640.000
G1 X14.580 Y41.088 E-0.29823
G1 X15.021 Y40.403 E-0.18803
G1 X15.535 Y39.810 E-0.18128
G1 X15.848 Y39.560 E-0.09246
;WIPE_END
G1 E-0.04000 F2100.000
G1 Z0.600 F10800.000
G1 X184.076 Y77.929
G1 Z0.200
G1 E0.80000 F2100.000
;TYPE:Perimeter
G1 F1200.000
G1 X184.188 Y77.487 E0.01430
G1 X184.386 Y77.076 E0.01430
G1 X184.661 Y76.712 E0.01430
G1 X185.003 Y76.411 E0.01430
G1 X185.398 Y76.183 E0.01430
G1 X185.830 Y76.037 E0.01430
G1 X186.283 Y75.981 E0.01430
G1 X186.738 Y76.015 E0.01430
G1 X187.177 Y76.138 E0.01430
G1 X187.582 Y76.346 E0.01430
G1 X187.933 Y76.626 E0.01407
G1 X188.169 Y76.894 E0.01119
G1 X188.403 Y77.276 E0.01407
G1 X188.559 Y77.705 E0.01430
G1 X188.627 Y78.156 E0.01430
G1 X188.604 Y78.611 E0.01430
G1 X188.492 Y79.053 E0.01430
G1 X188.294 Y79.464 E0.01430
G1 X188.019 Y79.828 E0.01430
G1 X187.677 Y80.129 E0.01430
G1 X187.282 Y80.357 E0.01430
G1 X186.850 Y80.503 E0.01430
G1 X186.397 Y80.559 E0.01430
G1 X185.942 Y80.525 E0.01430
G1 X185.503 Y80.402 E0.01430
G1 X185.098 Y80.194 E0.01430
G1 X184.741 Y79.909 E0.01430
G1 X184.453 Y79.566 E0.01407
G1 X184.274 Y79.257 E0.01119
G1 X184.121 Y78.835 E0.01407
G1 X184.053 Y78.384 E0.01430
G1 X184.073 Y77.989 E0.01242
G1 X184.449 Y78.007 F10800.000
;TYPE:External perimeter
G1 F1200.000
G1 X184.544 Y77.616 E0.01262
G1 X184.709 Y77.273 E0.01193
G1 X184.939 Y76.970 E0.01193
G1 X185.224 Y76.718 E0.01193
G1 X185.554 Y76.528 E0.01193
G1 X185.915 Y76.407 E0.01193
G1 X186.292 Y76.359 E0.01193
G1 X186.672 Y76.388 E0.01193
G1 X187.038 Y76.491 E0.01193
G1 X187.377 Y76.665 E0.01193
G1 X187.672 Y76.900 E0.01185
G1 X187.865 Y77.118 E0.00912
G1 X188.062 Y77.441 E0.01185
G1 X188.192 Y77.798 E0.01193
G1 X188.249 Y78.175 E0.01193
G1 X188.230 Y78.555 E0.01193
G1 X188.136 Y78.924 E0.01193
G1 X187.971 Y79.267 E0.01193
G1 X187.741 Y79.570 E0.01193
G1 X187.456 Y79.822 E0.01193
G1 X187.126 Y80.012 E0.01193
G1 X186.765 Y80.133 E0.01193
G1 X186.388 Y80.181 E0.01193
G1 X186.008 Y80.152 E0.01193
G1 X185.642 Y80.049 E0.01193
G1 X185.303 Y79.875 E0.01193
G1 X185.006 Y79.638 E0.01193
G1 X184.763 Y79.349 E0.01185
G1 X184.617 Y79.097 E0.00912
G1 X184.488 Y78.742 E0.01185
G1 X184.431 Y78.365 E0.01193
G1 X184.446 Y78.067 E0.00935
G1 X184.134 Y77.761 F10800.000
;WIPE_START
G1 F8640.000
G1 X184.544 Y77.616 E-0.10656
G1 X184.709 Y77.273 E-0.08787
G1 X184.939 Y76.970 E-0.08787
G1 X185.224 Y76.718 E-0.08787
G1 X185.554 Y76.528 E-0.08787
G1 X185.915 Y76.407 E-0.08788
G1 X186.292 Y76.359 E-0.08787
G1 X186.672 Y76.388 E-0.08787
G1 X186.832 Y76.433 E-0.03832
;WIPE_END
G1 E-0.04000 F2100.000
G1 Z0.600 F10800.000
G1 X219.929 Y61.584
G1 Z0.200
G1 E0.80000 F2100.000
;TYPE:Perimeter
G1 F1200.000
G1 X219.765 Y61.053 E0.01742
G1 X219.710 Y60.500 E0.01742
G1 X219.765 Y59.947 E0.01742
G1 X219.929 Y59.416 E0.01742
G1 X220.195 Y58.928 E0.01742
G1 X220.552 Y58.503 E0.01742
G1 X220.986 Y58.156 E0.01742
G1 X221.474 Y57.906 E0.01719
G1 X221.886 Y57.779 E0.01353
G1 X222.430 Y57.711 E0.01719
G1 X222.984 Y57.752 E0.01742
G1 X223.519 Y57.903 E0.01742
G1 X224.014 Y58.156 E0.01742
G1 X224.448 Y58.503 E0.01742
G1 X224.805 Y58.928 E0.01742
G1 X225.071 Y59.416 E0.01742
G1 X225.235 Y59.947 E0.01742
G1 X225.290 Y60.500 E0.01742
G1 X225.235 Y61.053 E0.01742
G1 X225.071 Y61.584 E0.01742
G1 X224.805 Y62.072 E0.01742
G1 X224.448 Y62.497 E0.01742
G1 X224.014 Y62.844 E0.01742
G1 X223.519 Y63.097 E0.01742
G1 X222.992 Y63.246 E0.01719
G1 X222.562 Y63.289 E0.01353
G1 X222.016 Y63.248 E0.01719
G1 X221.481 Y63.097 E0.01742
G1 X220.986 Y62.844 E0.01742
G1 X220.552 Y62.497 E0.01742
G1 X220.195 Y62.072 E0.01742
G1 X219.958 Y61.636 E0.01554
G1 X220.289 Y61.456 F10800.000
;TYPE:External perimeter
G1 F1200.000
G1 X220.137 Y60.978 E0.01574
G1 X220.089 Y60.500 E0.01505
G1 X220.137 Y60.022 E0.01505
G1 X220.278 Y59.563 E0.01505
G1 X220.508 Y59.142 E0.01505
G1 X220.816 Y58.774 E0.01505
G1 X221.192 Y58.475 E0.01505
G1 X221.617 Y58.257 E0.01497
G1 X221.966 Y58.149 E0.01146
G1 X222.440 Y58.090 E0.01497
G1 X222.919 Y58.126 E0.01505
G1 X223.381 Y58.256 E0.01505
G1 X223.808 Y58.475 E0.01505
G1 X224.184 Y58.774 E0.01505
G1 X224.492 Y59.142 E0.01505
G1 X224.722 Y59.563 E0.01505
G1 X224.863 Y60.022 E0.01505
G1 X224.911 Y60.500 E0.01505
G1 X224.863 Y60.978 E0.01505
G1 X224.722 Y61.437 E0.01505
G1 X224.492 Y61.858 E0.01505
G1 X224.184 Y62.226 E0.01505
G1 X223.808 Y62.525 E0.01505
G1 X223.381 Y62.744 E0.01506
G1 X222.921 Y62.874 E0.01497
G1 X222.557 Y62.910 E0.01146
G1 X222.081 Y62.874 E0.01497
G1 X221.619 Y62.744 E0.01505
G1 X221.192 Y62.525 E0.01505
G1 X220.816 Y62.226 E0.01505
G1 X220.508 Y61.858 E0.01505
G1 X220.318 Y61.509 E0.01247
G1 X219.892 Y61.409 F10800.000
;WIPE_START
G1 F8640.000
G1 X220.137 Y60.978 E-0.12954
G1 X220.089 Y60.500 E-0.11087
G1 X220.137 Y60.022 E-0.11087
G1 X220.278 Y59.563 E-0.11086
G1 X220.508 Y59.142 E-0.11086
G1 X220.816 Y58.774 E-0.11087
G1 X221.074 Y58.568 E-0.07614
;WIPE_END
G1 E-0.04000 F2100.000
G1 Z0.600 F10800.000
G1 X222.430 Y141.711
G1 Z0.200
G1 E0.80000 F2100.000
;TYPE:Perimeter
G1 F1200.000
G1 X222.984 Y141.752 E0.01742
G1 X223.519 Y141.903 E0.01742
G1 X224.014 Y142.156 E0.01742
G1 X224.448 Y142.503 E0.01742
G1 X224.805 Y142.928 E0.01742
G1 X225.071 Y143.416 E0.01742
G1 X225.235 Y143.947 E0.01742
G1 X225.290 Y144.500 E0.01742
G1 X225.235 Y145.053 E0.01742
G1 X225.071 Y145.584 E0.01742
G1 X224.805 Y146.072 E0.01742
G1 X224.448 Y146.497 E0.01742
G1 X224.014 Y146.844 E0.01742
G1 X223.526 Y147.094 E0.01719
G1 X223.114 Y147.221 E0.01353
G1 X222.570 Y147.289 E0.01719
G1 X222.016 Y147.248 E0.01742
G1 X221.481 Y147.097 E0.01742
G1 X220.986 Y146.844 E0.01742
G1 X220.552 Y146.497 E0.01742
G1 X220.195 Y146.072 E0.01742
G1 X219.929 Y145.584 E0.01742
G1 X219.765 Y145.053 E0.01742
G1 X219.710 Y144.500 E0.01742
G1 X219.765 Y143.947 E0.01742
G1 X219.929 Y143.416 E0.01742
G1 X220.195 Y142.928 E0.01742
G1 X220.552 Y142.503 E0.01742
G1 X220.986 Y142.156 E0.01742
G1 X221.474 Y141.906 E0.01719
G1 X221.886 Y141.779 E0.01353
G1 X222.371 Y141.718 E0.01531
G1 X222.418 Y142.092 F10800.000
;TYPE:External perimeter
G1 F1200.000
G1 X222.919 Y142.126 E0.01574
G1 X223.381 Y142.256 E0.01505
G1 X223.808 Y142.475 E0.01505
G1 X224.184 Y142.774 E0.01506
G1 X224.492 Y143.142 E0.01505
G1 X224.722 Y143.563 E0.01505
G1 X224.863 Y144.022 E0.01505
G1 X224.911 Y144.500 E0.01505
G1 X224.863 Y144.978 E0.01505
G1 X224.722 Y145.437 E0.01505
G1 X224.492 Y145.858 E0.01505
G1 X224.184 Y146.226 E0.01505
G1 X223.808 Y146.525 E0.01506
G1 X223.383 Y146.743 E0.01497
G1 X223.034 Y146.851 E0.01146
G1 X222.560 Y146.910 E0.01497
G1 X222.081 Y146.874 E0.01505
G1 X221.619 Y146.744 E0.01505
G1 X221.192 Y146.525 E0.01505
G1 X220.816 Y146.226 E0.01505
G1 X220.508 Y145.858 E0.01505
G1 X220.278 Y145.437 E0.01505
G1 X220.137 Y144.978 E0.01505
G1 X220.089 Y144.500 E0.01505
G1 X220.137 Y144.022 E0.01505
G1 X220.278 Y143.563 E0.01505
G1 X220.508 Y143.142 E0.01505
G1 X220.816 Y142.774 E0.01505
G1 X221.192 Y142.475 E0.01505
G1 X221.617 Y142.257 E0.01497
G1 X221.966 Y142.149 E0.01146
G1 X222.358 Y142.100 E0.01239
G1 X222.610 Y141.741 F10800.000
;WIPE_START
G1 F8640.000
G1 X222.919 Y142.126 E-0.12954
G1 X223.381 Y142.256 E-0.11086
G1 X223.808 Y142.475 E-0.11086
G1 X224.184 Y142.774 E-0.11087
G1 X224.492 Y143.142 E-0.11086
G1 X224.722 Y143.563 E-0.11086
G1 X224.819 Y143.879 E-0.07613
;WIPE_END
G1 E-0.04000 F2100.000
G1 Z0.600 F10800.000
G1 X188.627 Y143.806
G1 Z0.200
G1 E0.80000 F2100.000
;TYPE:Perimeter
G1 F1200.000
G1 X188.604 Y144.261 E0.01430
G1 X188.492 Y144.703 E0.01430
G1 X188.294 Y145.114 E0.01430
G1 X188.019 Y145.478 E0.01430
G1 X187.677 Y145.779 E0.01430
G1 X187.282 Y146.007 E0.01430
G1 X186.850 Y146.153 E0.01430
G1 X186.397 Y146.209 E0.01430
G1 X185.942 Y146.175 E0.01430
G1 X185.510 Y146.054 E0.01407
G1 X185.189 Y145.899 E0.01119
G1 X184.825 Y145.637 E0.01407
G1 X184.515 Y145.303 E0.01430
G1 X184.277 Y144.914 E0.01430
G1 X184.121 Y144.485 E0.01430
G1 X184.053 Y144.034 E0.01430
G1 X184.076 Y143.579 E0.01430
G1 X184.188 Y143.137 E0.01430
G1 X184.386 Y142.726 E0.01430
G1 X184.661 Y142.362 E0.01430
G1 X185.003 Y142.061 E0.01430
G1 X185.398 Y141.833 E0.01430
G1 X185.830 Y141.687 E0.01430
G1 X186.283 Y141.631 E0.01430
G1 X186.738 Y141.665 E0.01430
G1 X187.177 Y141.788 E0.01430
G1 X187.582 Y141.996 E0.01430
G1 X187.939 Y142.281 E0.01430
G1 X188.228 Y142.625 E0.01409
G1 X188.409 Y142.941 E0.01142
G1 X188.559 Y143.355 E0.01382
G1 X188.618 Y143.747 E0.01240
G1 X188.245 Y143.803 F10800.000
;TYPE:External perimeter
G1 F1200.000
G1 X188.230 Y144.205 E0.01262
G1 X188.136 Y144.574 E0.01193
G1 X187.971 Y144.917 E0.01193
G1 X187.741 Y145.220 E0.01193
G1 X187.456 Y145.472 E0.01193
G1 X187.126 Y145.662 E0.01193
G1 X186.765 Y145.783 E0.01193
G1 X186.388 Y145.831 E0.01193
G1 X186.008 Y145.802 E0.01193
G1 X185.644 Y145.700 E0.01185
G1 X185.382 Y145.574 E0.00912
G1 X185.075 Y145.353 E0.01185
G1 X184.817 Y145.074 E0.01193
M73 P0 R211
G1 X184.618 Y144.749 E0.01193
G1 X184.488 Y144.392 E0.01193
G1 X184.431 Y144.015 E0.01193
G1 X184.450 Y143.635 E0.01193
G1 X184.544 Y143.266 E0.01193
G1 X184.709 Y142.923 E0.01193
G1 X184.939 Y142.620 E0.01193
G1 X185.224 Y142.368 E0.01193
G1 X185.554 Y142.178 E0.01193
G1 X185.915 Y142.057 E0.01193
G1 X186.292 Y142.009 E0.01193
G1 X186.672 Y142.038 E0.01193
G1 X187.038 Y142.141 E0.01193
G1 X187.377 Y142.315 E0.01193
G1 X187.674 Y142.552 E0.01193
G1 X187.918 Y142.842 E0.01186
G1 X188.066 Y143.100 E0.00935
G1 X188.192 Y143.449 E0.01162
G1 X188.236 Y143.743 E0.00935
G1 X188.603 Y143.982 F10800.000
;WIPE_START
G1 F8640.000
G1 X188.230 Y144.205 E-0.10656
G1 X188.136 Y144.574 E-0.08787
G1 X187.971 Y144.917 E-0.08788
G1 X187.741 Y145.220 E-0.08787
G1 X187.456 Y145.472 E-0.08787
G1 X187.126 Y145.662 E-0.08788
G1 X186.765 Y145.783 E-0.08787
G1 X186.388 Y145.831 E-0.08787
G1 X186.222 Y145.818 E-0.03832
;WIPE_END
G1 E-0.04000 F2100.000
G1 Z0.600 F10800.000
G1 X30.290 Y144.500
G1 Z0.200
G1 E0.80000 F2100.000
;TYPE:Perimeter
G1 F1200.000
G1 X30.235 Y145.053 E0.01742
G1 X30.071 Y145.584 E0.01742
G1 X29.805 Y146.072 E0.01742
G1 X29.448 Y146.497 E0.01742
G1 X29.014 Y146.844 E0.01742
G1 X28.526 Y147.094 E0.01719
G1 X28.114 Y147.221 E0.01353
G1 X27.570 Y147.289 E0.01719
G1 X27.016 Y147.248 E0.01742
G1 X26.481 Y147.097 E0.01742
G1 X25.986 Y146.844 E0.01742
G1 X25.552 Y146.497 E0.01742
G1 X25.195 Y146.072 E0.01742
G1 X24.929 Y145.584 E0.01742
G1 X24.765 Y145.053 E0.01742
G1 X24.710 Y144.500 E0.01742
G1 X24.765 Y143.947 E0.01742
G1 X24.929 Y143.416 E0.01742
G1 X25.195 Y142.928 E0.01742
G1 X25.552 Y142.503 E0.01742
G1 X25.986 Y142.156 E0.01742
G1 X26.474 Y141.906 E0.01719
G1 X26.886 Y141.779 E0.01353
G1 X27.430 Y141.711 E0.01719
G1 X27.984 Y141.752 E0.01742
G1 X28.519 Y141.903 E0.01742
G1 X29.014 Y142.156 E0.01742
G1 X29.448 Y142.503 E0.01742
G1 X29.805 Y142.928 E0.01742
G1 X30.071 Y143.416 E0.01742
G1 X30.235 Y143.947 E0.01742
G1 X30.284 Y144.440 E0.01554
G1 X29.909 Y144.478 F10800.000
;TYPE:External perimeter
G1 F1200.000
G1 X29.863 Y144.978 E0.01574
G1 X29.722 Y145.437 E0.01505
G1 X29.492 Y145.858 E0.01505
G1 X29.184 Y146.226 E0.01505
G1 X28.808 Y146.525 E0.01505
G1 X28.383 Y146.743 E0.01497
G1 X28.034 Y146.851 E0.01146
G1 X27.560 Y146.910 E0.01497
G1 X27.081 Y146.874 E0.01505
G1 X26.619 Y146.744 E0.01505
G1 X26.192 Y146.525 E0.01505
G1 X25.816 Y146.226 E0.01506
G1 X25.508 Y145.858 E0.01505
G1 X25.278 Y145.437 E0.01505
G1 X25.137 Y144.978 E0.01505
G1 X25.089 Y144.500 E0.01505
G1 X25.137 Y144.022 E0.01505
G1 X25.278 Y143.563 E0.01505
G1 X25.508 Y143.142 E0.01505
G1 X25.816 Y142.774 E0.01505
G1 X26.192 Y142.475 E0.01506
G1 X26.617 Y142.257 E0.01497
G1 X26.966 Y142.149 E0.01146
G1 X27.440 Y142.090 E0.01497
G1 X27.919 Y142.126 E0.01505
G1 X28.381 Y142.256 E0.01505
G1 X28.808 Y142.475 E0.01505
G1 X29.184 Y142.774 E0.01505
G1 X29.492 Y143.142 E0.01505
G1 X29.722 Y143.563 E0.01505
G1 X29.863 Y144.022 E0.01505
G1 X29.903 Y144.418 E0.01248
G1 X30.257 Y144.676 F10800.000
;WIPE_START
G1 F8640.000
G1 X29.863 Y144.978 E-0.12954
G1 X29.722 Y145.437 E-0.11086
G1 X29.492 Y145.858 E-0.11086
G1 X29.184 Y146.226 E-0.11087
G1 X28.808 Y146.525 E-0.11087
G1 X28.383 Y146.743 E-0.11025
G1 X28.066 Y146.841 E-0.07674
;WIPE_END
G1 E-0.04000 F2100.000
G1 Z0.600 F10800.000
G1 X57.853 Y144.034
G1 Z0.200
G1 E0.80000 F2100.000
;TYPE:Perimeter
G1 F1200.000
G1 X57.876 Y143.579 E0.01430
G1 X57.988 Y143.137 E0.01430
G1 X58.186 Y142.726 E0.01430
G1 X58.461 Y142.362 E0.01430
G1 X58.803 Y142.061 E0.01430
G1 X59.198 Y141.833 E0.01430
G1 X59.630 Y141.687 E0.01430
G1 X60.083 Y141.631 E0.01430
G1 X60.538 Y141.665 E0.01430
G1 X60.977 Y141.788 E0.01430
G1 X61.382 Y141.996 E0.01430
